X:9
T:Carillon
T:L'Arlsienne
C:Georges Bizet
R:---
Z:Transcrit par Michel Bellon
M:6/8
L:1/8
K:Bb
d>ed c2d|B3- B>cd|d>cB B2A|G3- G>Bd|f>ed c>de|d3 G>Bd| f>ed c>de|d2d |:
b>ag |f2a g>fe|d2B d>cB|A2F GAB|A3- A>FA|c>BA G>AB|A3 A>FA|c>BA G>AB|
A3- A>Bc|A3 A>Bc|d>ed c2d|B3-Bcd|d>cB B2A|G2G :|b>ag|f2a g>fe|d2f e>dc|B2G B>AG|G3|]
%%footer $D   Galouvielle-MBe 2008 \n--- (--)
